X:1
T:Title
%%score { 1 | 2 }
L:1/8
M:3/4
K:E
V:1 treble nm="Grand Piano"
V:2 bass 
V:1
 z2 z2[Q:1/4=100] G2 | G>[FA] [GB]3 [GB] | [Ac]>[GB] [EG]3 [EG] | [GB]>[FA] [DF]3 [FA] | %4
[M:2/4] [FA] G3 |[M:1/4] G2 |[M:3/4] G>[FA] [GB]3 [GB] | [Ac]>[GB] [Ge]3 [Ge] | d>d d3 c | %9
[M:2/4] [Ec] [DB]3 |[M:1/4] [DB]2 |[M:3/4] [EB]>[EG] [Ge]3 [GB] | [Ad]>[Ac] [GB]3 [EG] | %13
 [FA]>[GB] [FA]3 [DF] |[M:2/4] [EG] [GB]3 |[M:1/4] B2 |[M:3/4] B>G [Ge]3 [GB] | %17
 [Ad]>[Ac] [GB]3 [EG] |[M:13/16] [DF]>[EG][FA]-<[FA] z [DB]3/2 |[M:11/16] BG/-G/-G/-G/-G/-G-<G |] %20
V:2
 z2 z2 [E,B,E]2 | [E,B,E]>[E,B,] [E,E]3 [E,E] | [E,E]>[E,E] [E,B,]3 [E,B,] | %3
 [B,,B,]>[B,,B,] [B,,B,]3 [B,,B,] |[M:2/4] [E,B,] [E,B,E]3 |[M:1/4] [E,B,E]2 | %6
[M:3/4] [E,B,E]>[E,B,] [E,E]3 [E,E] | [E,E]>[E,E] [E,B,]3 [E,B,] | %8
 [F,A,F]>[F,B,F] [F,B,F]3 [F,^A,E] |[M:2/4] [B,,F,]4 |[M:1/4] [B,,A,]2 | %11
[M:3/4] [E,G,]>[E,B,] [E,B,]3 [E,E] | [A,E]>[A,E] [E,E]3 [E,B,] | %13
 [B,,B,]>[B,,B,] [B,,B,]3 [B,,B,] |[M:2/4] [E,B,] [E,B,]3 |[M:1/4] [E,G,E]2 | %16
[M:3/4] [E,G,E]>[E,B,E] [E,B,]3 [E,E] | [A,E]>[A,E] [E,E]3 [E,B,] | %18
[M:13/16] [B,,B,]>[B,,B,][B,,B,]-<[B,,B,] z [B,,F,]3/2 | %19
[M:11/16] [E,G,E][E,B,E]/-[E,B,E]/-[E,B,E]/-[E,B,E]/-[E,B,E]/-[E,B,E]-<[E,B,E] |] %20

